Apricity Icons/apps/scalable/kazam.svg

<svg xmlns="http://www.w3.org/2000/svg" xmlns:xlink="http://www.w3.org/1999/xlink" viewBox="0 0 48 48"><defs><clipPath id="clipPath-801436214"><g transform="translate(0,-1004.3622)"><path d="m -24 13 c 0 1.105 -0.672 2 -1.5 2 -0.828 0 -1.5 -0.895 -1.5 -2 0 -1.105 0.672 -2 1.5 -2 0.828 0 1.5 0.895 1.5 2 z" transform="matrix(15.333333,0,0,11.5,414.99999,878.8622)" fill="#1890d0"/></g></clipPath><clipPath><g transform="translate(0,-1004.3622)"><path d="m -24 13 c 0 1.105 -0.672 2 -1.5 2 -0.828 0 -1.5 -0.895 -1.5 -2 0 -1.105 0.672 -2 1.5 -2 0.828 0 1.5 0.895 1.5 2 z" transform="matrix(15.333333,0,0,11.5,414.99999,878.8622)" fill="#1890d0"/></g></clipPath><radialGradient id="radial0" gradientUnits="userSpaceOnUse" cx="6.773" cy="6.773" r="3.669" gradientTransform="scale(3.543307,3.543307)"><stop stop-color="#000" stop-opacity="1"/><stop offset="1" stop-color="#000" stop-opacity="0"/></radialGradient><radialGradient id="radial1" gradientUnits="userSpaceOnUse" cx="6.773" cy="6.773" r="3.669" gradientTransform="scale(3.543307,3.543307)"><stop stop-color="#000" stop-opacity="0.251"/><stop offset="1" stop-color="#000" stop-opacity="0"/></radialGradient><radialGradient id="radial2" gradientUnits="userSpaceOnUse" cx="6.209" cy="5.927" r="0.282" gradientTransform="matrix(5.31496,0,0,5.31496,-10.999999,-10.499999)"><stop stop-color="#fff" stop-opacity="0.749"/><stop offset="1" stop-color="#fff" stop-opacity="0"/></radialGradient><path id="SVGCleanerId_0" d="m 24 11 c 7.18 0 13 5.82 13 13 c 0 7.18 -5.82 13 -13 13 c -7.18 0 -13 -5.82 -13 -13 c 0 -7.18 5.82 -13 13 -13 m 0 0"/><radialGradient xlink:href="#radial0" id="radialGradient3162" gradientUnits="userSpaceOnUse" gradientTransform="scale(3.543307,3.543307)" cx="6.773" cy="6.773" r="3.669"/><radialGradient xlink:href="#radial1" id="radialGradient3164" gradientUnits="userSpaceOnUse" gradientTransform="scale(3.543307,3.543307)" cx="6.773" cy="6.773" r="3.669"/><radialGradient xlink:href="#radial2" id="radialGradient3171" gradientUnits="userSpaceOnUse" gradientTransform="matrix(5.31496,0,0,5.31496,-8.999999,-4.499999)" cx="6.209" cy="5.927" r="0.282"/><radialGradient xlink:href="#radial2" id="radialGradient3174" gradientUnits="userSpaceOnUse" gradientTransform="matrix(5.31496,0,0,5.31496,-10.999999,-10.499999)" cx="6.209" cy="5.927" r="0.282"/><linearGradient id="linearGradient3260" gradientUnits="userSpaceOnUse" gradientTransform="matrix(0,-1,1,0,-1.5e-6,47.999998)" x1="1" x2="47"><stop stop-color="#e4e4e4" stop-opacity="1"/><stop offset="1" stop-color="#eee" stop-opacity="1"/></linearGradient></defs><g><path d="m 36.31 5 c 5.859 4.062 9.688 10.831 9.688 18.5 c 0 12.426 -10.07 22.5 -22.5 22.5 c -7.669 0 -14.438 -3.828 -18.5 -9.688 c 1.037 1.822 2.306 3.499 3.781 4.969 c 4.085 3.712 9.514 5.969 15.469 5.969 c 12.703 0 23 -10.298 23 -23 c 0 -5.954 -2.256 -11.384 -5.969 -15.469 c -1.469 -1.475 -3.147 -2.744 -4.969 -3.781 z m 4.969 3.781 c 3.854 4.113 6.219 9.637 6.219 15.719 c 0 12.703 -10.297 23 -23 23 c -6.081 0 -11.606 -2.364 -15.719 -6.219 c 4.16 4.144 9.883 6.719 16.219 6.719 c 12.703 0 23 -10.298 23 -23 c 0 -6.335 -2.575 -12.06 -6.719 -16.219 z" opacity="0.05"/><path d="m 41.28 8.781 c 3.712 4.085 5.969 9.514 5.969 15.469 c 0 12.703 -10.297 23 -23 23 c -5.954 0 -11.384 -2.256 -15.469 -5.969 c 4.113 3.854 9.637 6.219 15.719 6.219 c 12.703 0 23 -10.298 23 -23 c 0 -6.081 -2.364 -11.606 -6.219 -15.719 z" opacity="0.1"/><path d="m 31.25 2.375 c 8.615 3.154 14.75 11.417 14.75 21.13 c 0 12.426 -10.07 22.5 -22.5 22.5 c -9.708 0 -17.971 -6.135 -21.12 -14.75 a 23 23 0 0 0 44.875 -7 a 23 23 0 0 0 -16 -21.875 z" opacity="0.2"/></g><path d="m 24 1 c -9.503 0 -17.65 5.779 -21.16 14 l 42.31 0 c -3.506 -8.221 -11.653 -14 -21.16 -14 z m -21.16 32 c 3.506 8.221 11.653 14 21.16 14 c 9.503 0 17.65 -5.779 21.16 -14 l -42.31 0 z" fill="url(#linearGradient3260)" fill-opacity="1"/><g><g clip-path="url(#clipPath-801436214)"><g transform="translate(1,1)"><g opacity="0.1"><!-- color: #eeeeee --><g><path d="m 15 9 l 0.004 0 c 1.102 0 1.996 0.895 1.996 2 l 0 0.004 c 0 1.102 -0.895 1.996 -1.996 1.996 l -0.004 0 c -1.105 0 -2 -0.895 -2 -1.996 l 0 -0.004 c 0 -1.105 0.895 -2 2 -2 m 0 0" fill="#000" stroke="none" fill-rule="evenodd" fill-opacity="1"/><path d="m 0 15 l 0 6 l 48 0 l 0 -6 m -48 0" fill="#000" stroke="none" fill-rule="nonzero" fill-opacity="1"/><path d="m 0 21 l 0 6 l 48 0 l 0 -6 m -48 0" fill="#000" stroke="none" fill-rule="nonzero" fill-opacity="1"/><use fill="#000" stroke="none" fill-rule="evenodd" xlink:href="#SVGCleanerId_0"/><path d="m 0 27 l 0 6 l 48 0 l 0 -6 m -48 0" fill="#000" stroke="none" fill-rule="nonzero" fill-opacity="1"/><use fill="#000" stroke="none" fill-rule="evenodd" xlink:href="#SVGCleanerId_0"/><path d="m 24 12 c 6.629 0 12 5.375 12 12 c 0 6.629 -5.371 12 -12 12 c -6.625 0 -12 -5.371 -12 -12 c 0 -6.625 5.375 -12 12 -12 m 0 0" fill="#000" stroke="none" fill-rule="evenodd" fill-opacity="1"/><path d="m 24 14 c 5.52 0 9.996 4.477 9.996 10 c 0 5.52 -4.477 9.996 -9.996 9.996 c -5.523 0 -10 -4.477 -10 -9.996 c 0 -5.523 4.477 -10 10 -10 m 0 0" fill="#000" stroke="none" fill-rule="evenodd" fill-opacity="1"/><path d="m 24 16 c 4.418 0 8 3.582 8 8 c 0 4.418 -3.582 8 -8 8 c -4.422 0 -8 -3.582 -8 -8 c 0 -4.422 3.582 -8 8 -8 m 0 0" fill="#000" stroke="none" fill-rule="evenodd" fill-opacity="1"/><path d="m 24 18 l 0.004 0 c 3.313 0 5.996 2.688 5.996 6 l 0 0.004 c 0 3.313 -2.684 5.996 -5.996 5.996 l -0.004 0 c -3.313 0 -6 -2.684 -6 -5.996 l 0 -0.004 c 0 -3.313 2.688 -6 6 -6 m 0 0" fill="#000" stroke="none" fill-rule="evenodd" fill-opacity="1"/><path d="m 28.719 20.313 c -1.664 5.164 -9.824 2.688 -9.719 7 c 1.074 1.617 2.906 2.688 5 2.688 c 3.324 0 6 -2.676 6 -6 c 0 -1.398 -0.484 -2.668 -1.281 -3.688 m 0 0" fill="#000" stroke="none" fill-rule="nonzero" fill-opacity="0.149"/><path d="m 22 19.5 l 0.004 0 c 0.828 0 1.5 0.668 1.5 1.496 l 0 0.004 c 0 0.828 -0.672 1.5 -1.5 1.5 l -0.004 0 c -0.828 0 -1.5 -0.672 -1.5 -1.5 l 0 -0.004 c 0 -0.828 0.672 -1.496 1.5 -1.496 m 0 0" fill="#000" stroke="none" fill-rule="evenodd"/><path d="m 24 25.5 l 0.004 0 c 0.828 0 1.496 0.672 1.496 1.5 l 0 0.004 c 0 0.828 -0.668 1.5 -1.496 1.5 l -0.004 0 c -0.828 0 -1.5 -0.672 -1.5 -1.5 l 0 -0.004 c 0 -0.828 0.672 -1.5 1.5 -1.5 m 0 0" fill="#000" stroke="none" fill-rule="evenodd"/></g></g></g></g></g><path d="m 15,9 0.004,0 C 16.106,9 17,9.895 17,11 l 0,0.004 C 17,12.106 16.105,13 15.004,13 L 15,13 c -1.105,0 -2,-0.895 -2,-1.996 L 13,11 c 0,-1.105 0.895,-2 2,-2 m 0,0" fill="#ff7070" fill-rule="evenodd" stroke="none" fill-opacity="1"/><path d="m 2.844 15 c -0.805 1.887 -1.381 3.894 -1.656 6 l 45.625 0 c -0.275 -2.106 -0.851 -4.113 -1.656 -6 l -42.31 0 z" fill="#9569b2" fill-rule="nonzero" stroke="none" fill-opacity="1"/><path d="m 1.188 21 c -0.128 0.984 -0.188 1.981 -0.188 3 c 0 1.019 0.059 2.02 0.188 3 l 45.625 0 c 0.128 -0.984 0.188 -1.981 0.188 -3 c 0 -1.019 -0.059 -2.02 -0.188 -3 l -45.625 0 z" fill="#dedd8e" fill-rule="nonzero" stroke="none" fill-opacity="1"/><use height="48" width="48" xlink:href="#SVGCleanerId_0" fill="url(#radialGradient3162)" fill-rule="evenodd" stroke="none"/><path d="m 1.188 27 c 0.275 2.106 0.851 4.113 1.656 6 l 42.31 0 c 0.805 -1.887 1.381 -3.894 1.656 -6 l -45.625 0 z" fill="#9569b2" fill-rule="nonzero" stroke="none" fill-opacity="1"/><use height="48" width="48" xlink:href="#SVGCleanerId_0" fill="url(#radialGradient3164)" fill-rule="evenodd" stroke="none"/><path d="m 24 12 c 6.629 0 12 5.375 12 12 0 6.629 -5.371 12 -12 12 -6.625 0 -12 -5.371 -12 -12 0 -6.625 5.375 -12 12 -12 m 0 0" fill="#f4fbe5" fill-rule="evenodd" stroke="none" fill-opacity="1"/><path d="m 24 14 c 5.52 0 9.996 4.477 9.996 10 0 5.52 -4.477 9.996 -9.996 9.996 -5.523 0 -10 -4.477 -10 -9.996 0 -5.523 4.477 -10 10 -10 m 0 0" fill="#705178" fill-rule="evenodd" stroke="none" fill-opacity="1"/><path d="m 24 16 c 4.418 0 8 3.582 8 8 0 4.418 -3.582 8 -8 8 -4.422 0 -8 -3.582 -8 -8 0 -4.422 3.582 -8 8 -8 m 0 0" fill="#e4e6d5" fill-rule="evenodd" stroke="none" fill-opacity="1"/><path d="m 24,18 0.004,0 C 27.317,18 30,20.688 30,24 l 0,0.004 C 30,27.317 27.316,30 24.004,30 L 24,30 c -3.313,0 -6,-2.684 -6,-5.996 L 18,24 c 0,-3.313 2.688,-6 6,-6 m 0,0" fill="#4b2f52" fill-rule="evenodd" stroke="none" fill-opacity="1"/><path d="m 28.719 20.313 c -1.664 5.164 -9.824 2.688 -9.719 7 1.074 1.617 2.906 2.688 5 2.688 3.324 0 6 -2.676 6 -6 0 -1.398 -0.484 -2.668 -1.281 -3.688 m 0 0" fill="#fff" fill-rule="nonzero" stroke="none" fill-opacity="0.149"/><path d="m 22,19.5 0.004,0 c 0.828,0 1.5,0.668 1.5,1.496 l 0,0.004 c 0,0.828 -0.672,1.5 -1.5,1.5 L 22,22.5 c -0.828,0 -1.5,-0.672 -1.5,-1.5 l 0,-0.004 C 20.5,20.168 21.172,19.5 22,19.5 m 0,0" fill="url(#radialGradient3174)" fill-rule="evenodd" stroke="none"/><path d="m 24,25.5 0.004,0 c 0.828,0 1.496,0.672 1.496,1.5 l 0,0.004 c 0,0.828 -0.668,1.5 -1.496,1.5 l -0.004,0 c -0.828,0 -1.5,-0.672 -1.5,-1.5 L 22.5,27 c 0,-0.828 0.672,-1.5 1.5,-1.5 m 0,0" fill="url(#radialGradient3171)" fill-rule="evenodd" stroke="none"/><g><path d="m 40.03 7.531 c 3.712 4.084 5.969 9.514 5.969 15.469 0 12.703 -10.297 23 -23 23 c -5.954 0 -11.384 -2.256 -15.469 -5.969 4.178 4.291 10.01 6.969 16.469 6.969 c 12.703 0 23 -10.298 23 -23 0 -6.462 -2.677 -12.291 -6.969 -16.469 z" opacity="0.1"/></g></svg>

<svg xmlns="http://www.w3.org/2000/svg" xmlns:xlink="http://www.w3.org/1999/xlink" viewBox="0 0 48 48">
 <defs>
  <radialGradient id="radial2" gradientUnits="userSpaceOnUse" cx="6.209" cy="5.927" r="0.282" gradientTransform="matrix(5.31496,0,0,5.31496,-10.999999,-10.499999)">
   <stop style="stop-color:#fff;stop-opacity:0.749"/>
   <stop offset="1" style="stop-color:#fff;stop-opacity:0"/>
  </radialGradient>
  <radialGradient xlink:href="#radial2" id="radialGradient3171" gradientUnits="userSpaceOnUse" gradientTransform="matrix(5.31496,0,0,5.31496,-8.999999,-4.499999)" cx="6.209" cy="5.927" r="0.282"/>
  <radialGradient xlink:href="#radial2" id="radialGradient3174" gradientUnits="userSpaceOnUse" gradientTransform="matrix(5.31496,0,0,5.31496,-10.999999,-10.499999)" cx="6.209" cy="5.927" r="0.282"/>
  <linearGradient id="linearGradient3260" gradientUnits="userSpaceOnUse" gradientTransform="matrix(0,-1,1,0,-1.5e-6,47.999998)" x1="1" x2="47">
   <stop style="stop-color:#e4e4e4;stop-opacity:1"/>
   <stop offset="1" style="stop-color:#eee;stop-opacity:1"/>
  </linearGradient>
  <radialGradient id="radialGradient4215" cx="24" cy="24" r="13" gradientUnits="userSpaceOnUse" gradientTransform="translate(0.1,0.6)">
   <stop style="stop-color:#000;stop-opacity:1"/>
   <stop offset="1" style="stop-color:#000;stop-opacity:0"/>
  </radialGradient>
 </defs>
 <g>
  <path d="m 36.31 5 c 5.859 4.062 9.688 10.831 9.688 18.5 c 0 12.426 -10.07 22.5 -22.5 22.5 c -7.669 0 -14.438 -3.828 -18.5 -9.688 c 1.037 1.822 2.306 3.499 3.781 4.969 c 4.085 3.712 9.514 5.969 15.469 5.969 c 12.703 0 23 -10.298 23 -23 c 0 -5.954 -2.256 -11.384 -5.969 -15.469 c -1.469 -1.475 -3.147 -2.744 -4.969 -3.781 z m 4.969 3.781 c 3.854 4.113 6.219 9.637 6.219 15.719 c 0 12.703 -10.297 23 -23 23 c -6.081 0 -11.606 -2.364 -15.719 -6.219 c 4.16 4.144 9.883 6.719 16.219 6.719 c 12.703 0 23 -10.298 23 -23 c 0 -6.335 -2.575 -12.06 -6.719 -16.219 z" style="opacity:0.05"/>
  <path d="m 41.28 8.781 c 3.712 4.085 5.969 9.514 5.969 15.469 c 0 12.703 -10.297 23 -23 23 c -5.954 0 -11.384 -2.256 -15.469 -5.969 c 4.113 3.854 9.637 6.219 15.719 6.219 c 12.703 0 23 -10.298 23 -23 c 0 -6.081 -2.364 -11.606 -6.219 -15.719 z" style="opacity:0.1"/>
  <path d="m 31.25 2.375 c 8.615 3.154 14.75 11.417 14.75 21.13 c 0 12.426 -10.07 22.5 -22.5 22.5 c -9.708 0 -17.971 -6.135 -21.12 -14.75 a 23 23 0 0 0 44.875 -7 a 23 23 0 0 0 -16 -21.875 z" style="opacity:0.2"/>
 </g>
 <path d="M 24,1 C 14.497,1 6.35,6.779 2.84,15 4,16 44,16 45.15,15 41.644,6.779 33.497,1 23.99,1 Z M 2.84,33 C 6.346,41.221 14.493,47 24,47 33.503,47 41.65,41.221 45.16,33 44,32 4,32 2.85,33 Z" style="fill:url(#linearGradient3260);fill-opacity:1"/>
 <g>
  <g>
   <g transform="translate(1,1)">
    <g style="opacity:0.1">
     <!-- color: #eeeeee -->
     <g>
      <path d="m 15 9 l 0.004 0 c 1.102 0 1.996 0.895 1.996 2 l 0 0.004 c 0 1.102 -0.895 1.996 -1.996 1.996 l -0.004 0 c -1.105 0 -2 -0.895 -2 -1.996 l 0 -0.004 c 0 -1.105 0.895 -2 2 -2 m 0 0" style="fill:#000;fill-opacity:1;stroke:none;fill-rule:evenodd"/>
      <path d="m 2.84 33 c 0.145 0.34 0.31 0.669 0.471 1 l 13.771 0 c 2.114 1.861 4.881 3 7.918 3 3.039 0 5.806 -1.138 7.92 -3 l 11.77 0 c 0.161 -0.331 0.326 -0.66 0.471 -1 l -42.31 0" transform="translate(-1,-1)" style="fill:#000;fill-opacity:1;stroke:none;fill-rule:nonzero"/>
     </g>
    </g>
   </g>
  </g>
 </g>
 <path d="m 15,9 0.004,0 C 16.106,9 17,9.895 17,11 l 0,0.004 C 17,12.106 16.105,13 15.004,13 L 15,13 c -1.105,0 -2,-0.895 -2,-1.996 L 13,11 c 0,-1.105 0.895,-2 2,-2 m 0,0" style="fill:#ff7070;fill-opacity:1;stroke:none;fill-rule:evenodd"/>
 <path d="m 2.844 15 c -0.805 1.887 -1.381 3.894 -1.656 6 l 45.625 0 c -0.275 -2.106 -0.851 -4.113 -1.656 -6 l -42.31 0 z" style="fill:#9569b2;fill-opacity:1;stroke:none;fill-rule:nonzero"/>
 <path d="M 1.188,21 C 1.06,21.984 1,22.981 1,24 c 0,1.019 0.059,2.02 0.188,3 l 45.625,0 c 0.128,-0.984 0.188,-1.981 0.188,-3 0,-1.019 -0.059,-2.02 -0.188,-3 L 1.188,21 Z" style="fill:#dedd8e;fill-opacity:1;stroke:none;fill-rule:nonzero"/>
 <path d="m 1.188 27 c 0.275 2.106 0.851 4.113 1.656 6 l 42.31 0 c 0.805 -1.887 1.381 -3.894 1.656 -6 l -45.625 0" style="fill:#9569b2;fill-opacity:1;stroke:none;fill-rule:nonzero"/>
 <g>
  <path d="m 24.1 11.6 c 7.181 0 13 5.823 13 13 0 7.181 -5.819 13 -13 13 -7.177 0 -13 -5.819 -13 -13 0 -7.177 5.823 -13 13 -13 m 0 0" style="fill:url(#radialGradient4215);fill-opacity:1;stroke:none;fill-rule:evenodd"/>
  <path d="m 16.07 33 17.854 0 c 1.904 -2.124 3.072 -4.922 3.072 -8 0 -4.176 -2.135 -7.85 -5.373 -10" style="fill:#000;opacity:0.1;fill-opacity:1;stroke:none;fill-rule:evenodd"/>
  <path d="m 24 12 c 6.629 0 12 5.375 12 12 0 6.629 -5.371 12 -12 12 -6.625 0 -12 -5.371 -12 -12 0 -6.625 5.375 -12 12 -12 m 0 0" style="fill:#f4fbe5;fill-opacity:1;stroke:none;fill-rule:evenodd"/>
  <path d="m 24 14 c 5.52 0 9.996 4.477 9.996 10 0 5.52 -4.477 9.996 -9.996 9.996 -5.523 0 -10 -4.477 -10 -9.996 0 -5.523 4.477 -10 10 -10 m 0 0" style="fill:#705178;fill-opacity:1;stroke:none;fill-rule:evenodd"/>
  <path d="m 24 16 c 4.418 0 8 3.582 8 8 0 4.418 -3.582 8 -8 8 -4.422 0 -8 -3.582 -8 -8 0 -4.422 3.582 -8 8 -8 m 0 0" style="fill:#e4e6d5;fill-opacity:1;stroke:none;fill-rule:evenodd"/>
  <path d="m 24,18 0.004,0 C 27.317,18 30,20.688 30,24 l 0,0.004 C 30,27.317 27.316,30 24.004,30 L 24,30 c -3.313,0 -6,-2.684 -6,-5.996 L 18,24 c 0,-3.313 2.688,-6 6,-6 m 0,0" style="fill:#4b2f52;fill-opacity:1;stroke:none;fill-rule:evenodd"/>
  <path d="m 28.719 20.313 c -1.664 5.164 -9.824 2.688 -9.719 7 1.074 1.617 2.906 2.688 5 2.688 3.324 0 6 -2.676 6 -6 0 -1.398 -0.484 -2.668 -1.281 -3.688 m 0 0" style="fill:#fff;fill-opacity:0.149;stroke:none;fill-rule:nonzero"/>
  <path d="m 22,19.5 0.004,0 c 0.828,0 1.5,0.668 1.5,1.496 l 0,0.004 c 0,0.828 -0.672,1.5 -1.5,1.5 L 22,22.5 c -0.828,0 -1.5,-0.672 -1.5,-1.5 l 0,-0.004 C 20.5,20.168 21.172,19.5 22,19.5 m 0,0" style="fill:url(#radialGradient3174);stroke:none;fill-rule:evenodd"/>
  <path d="m 24,25.5 0.004,0 c 0.828,0 1.496,0.672 1.496,1.5 l 0,0.004 c 0,0.828 -0.668,1.5 -1.496,1.5 l -0.004,0 c -0.828,0 -1.5,-0.672 -1.5,-1.5 L 22.5,27 c 0,-0.828 0.672,-1.5 1.5,-1.5 m 0,0" style="fill:url(#radialGradient3171);stroke:none;fill-rule:evenodd"/>
 </g>
 <g>
  <path d="m 40.03 7.531 c 3.712 4.084 5.969 9.514 5.969 15.469 0 12.703 -10.297 23 -23 23 c -5.954 0 -11.384 -2.256 -15.469 -5.969 4.178 4.291 10.01 6.969 16.469 6.969 c 12.703 0 23 -10.298 23 -23 0 -6.462 -2.677 -12.291 -6.969 -16.469 z" style="opacity:0.1"/>
 </g>
</svg>
